storage/app/icons/phosphoricons/regular/closed-captioning.svg

<svg xmlns="http://www.w3.org/2000/svg" fill="currentColor" viewBox="0 0 256 256"><path d="M224 48H32a16 16 0 0 0-16 16v128a16 16 0 0 0 16 16h192a16 16 0 0 0 16-16V64a16 16 0 0 0-16-16m0 144H32V64h192zm-105.08-40.29a8 8 0 0 1-2.92 10.93 40 40 0 1 1 0-69.28 8 8 0 1 1-8 13.85 24 24 0 1 0 0 41.58 8 8 0 0 1 10.92 2.92m80 0a8 8 0 0 1-2.92 10.93 40 40 0 1 1 0-69.28 8 8 0 1 1-8 13.85 24 24 0 1 0 0 41.58 8 8 0 0 1 10.92 2.92"/></svg>

<svg xmlns="http://www.w3.org/2000/svg" viewBox="0 0 256 256" fill="currentColor"><path d="M224,48H32A16,16,0,0,0,16,64V192a16,16,0,0,0,16,16H224a16,16,0,0,0,16-16V64A16,16,0,0,0,224,48Zm0,144H32V64H224V192ZM118.92,151.71A8,8,0,0,1,116,162.64a40,40,0,1,1,0-69.28,8,8,0,1,1-8,13.85,24,24,0,1,0,0,41.58A8,8,0,0,1,118.92,151.71Zm80,0A8,8,0,0,1,196,162.64a40,40,0,1,1,0-69.28,8,8,0,1,1-8,13.85,24,24,0,1,0,0,41.58A8,8,0,0,1,198.92,151.71Z"/></svg>
